X: 1
T: Northdown Waltz   (C)
O: 1820
B: Goulding & Co.'s Collection of New & Favorite Country Dances, Reels & Waltzes, 1820 
B: Barnes v.1 p.89
M: 3/4
L: 1/8
K: C
G2 | "C"e4 c2 | g2 e2 c2 | "G7"f2 d2 B2 | "C"c2 e2 G2 | e4 c2 | g2 e2 c2 | "G7"f2 d2 B2 | "C"c4 :|
G2 | "G7"G2 f2 d2 | "C"G2 e2 c2 | "G7"G2 d2 B2 | "C"c2 e2 G2 | "G7"G2 f2 d2 | "C"G2 e2 c2 | "G7"G2 d2 B2 | "C"c4 ||
g2 | "C"e2 g2 g2 | "F"a3 g fe | "Dm"d2 f2 f2 | "Em"g3 f ed | "Am"c2 e2 e2 | "Dm"f3 e dc | "G7"B2 Bc dB | "C"c4 |]
